src/images/svg/relaxing.svg

<?xml version="1.0" encoding="UTF-8"?>
<svg fill="none" viewBox="0 0 128 117" xmlns="http://www.w3.org/2000/svg">
<g clip-path="url(#a)" fill="#FF525C">
<path d="m23.814 20.486c1.7626 0.0019 3.4524 0.7029 4.6987 1.9492 1.2463 1.2464 1.9474 2.9362 1.9492 4.6988-0.0021 1.7624-0.7034 3.4521-1.9497 4.6982s-2.9358 1.947-4.6982 1.9489c-1.7623-0.0021-3.4517-0.7032-4.6978-1.9492-1.2461-1.2461-1.9471-2.9357-1.9492-4.6979 0.0018-1.7624 0.7026-3.4521 1.9487-4.6984s2.9358-1.9475 4.6983-1.9496zm0-3c-2.5587 3e-4 -5.0122 1.0169-6.8213 2.8262-1.8092 1.8093-2.8257 4.2631-2.8257 6.8218 0 2.5585 1.0165 5.0123 2.8257 6.8215 1.8091 1.8092 4.2627 2.8256 6.8213 2.8256 1.2669 1e-4 2.5213-0.2494 3.6919-0.7342 1.1705-0.4847 2.2344-1.1952 3.1303-2.091s1.6065-1.9594 2.0913-3.1299c0.4849-1.1705 0.7344-2.4251 0.7344-3.692 0-2.5588-1.0163-5.0128-2.8257-6.8222-1.8093-1.8093-4.2634-2.8258-6.8222-2.8258z"/>
<path d="m8.1814 31.514 12.562 42.389 0.6367 2.147h47.08c0.8093 0.0011 1.585 0.3232 2.1572 0.8955 0.5722 0.5724 0.8937 1.3482 0.8945 2.1575v3.983c-8e-4 0.8093-0.3223 1.5852-0.8945 2.1576-0.5722 0.5723-1.3479 0.8943-2.1572 0.8954h-48.642c-0.8093-0.0011-1.5851-0.3231-2.1573-0.8954-0.5721-0.5724-0.8937-1.3483-0.8945-2.1576v-3.85l-0.124-0.417-13.571-45.79 5.1123-1.515h-0.00195zm0.19189-3.069c-0.26179-1e-4 -0.52214 0.038-0.77295 0.113l-5.6514 1.674c-0.34236 0.1015-0.66101 0.2695-0.93847 0.4943-0.27746 0.2248-0.50792 0.502-0.67822 0.8159-0.17031 0.3138-0.27724 0.6581-0.31445 1.0133-0.037218 0.3551-0.0043693 0.7141 0.097168 1.0565l13.651 46.059v3.415c-1e-4 0.7948 0.1564 1.5819 0.4605 2.3163 0.304 0.7344 0.7495 1.4016 1.3115 1.9637s1.2295 1.0081 1.9639 1.3123c0.7343 0.3042 1.521 0.4607 2.3159 0.4607h48.642c1.6051-3e-4 3.1443-0.6381 4.2793-1.7732 1.1349-1.1351 1.7724-2.6746 1.7724-4.2798v-3.983c0-1.6052-0.6375-3.1446-1.7724-4.2797-1.135-1.1351-2.6742-1.773-4.2793-1.7733h-44.84l-12.643-42.658c-0.1666-0.562-0.5104-1.0551-0.98003-1.406-0.46959-0.3508-1.0398-0.5406-1.626-0.541h0.00195z"/>
<path d="m85.506 94.879c0.2867-1e-3 0.5711 0.055 0.836 0.1647s0.505 0.2709 0.707 0.4744l11.178 11.178c0.4082 0.409 0.6372 0.964 0.6372 1.542s-0.229 1.133-0.6372 1.542c-0.202 0.203-0.4426 0.365-0.7075 0.474-0.2649 0.11-0.5487 0.166-0.8354 0.165-0.2866 1e-3 -0.5708-0.055-0.8355-0.165s-0.5046-0.271-0.7065-0.474l-11.179-11.178c-0.203-0.2021-0.3637-0.4424-0.4732-0.7071s-0.1654-0.5484-0.1645-0.8349c-9e-4 -0.2864 0.055-0.5701 0.1645-0.8348s0.2702-0.505 0.4732-0.7071c0.2021-0.2034 0.4426-0.3646 0.7075-0.4743s0.5488-0.1657 0.8354-0.1648zm0-3c-0.6805-1e-3 -1.3546 0.1325-1.9834 0.3928-0.6288 0.2604-1.2 0.6425-1.6806 1.1243-0.9714 0.9719-1.5171 2.2898-1.5171 3.6639 0 1.3742 0.5457 2.6922 1.5171 3.6641l11.179 11.178c0.4804 0.482 1.0515 0.864 1.6802 1.124 0.6286 0.261 1.3024 0.394 1.9829 0.393 0.6805 1e-3 1.3546-0.133 1.9834-0.393s1.2-0.642 1.681-1.124c0.481-0.481 0.862-1.052 1.123-1.681 0.26-0.629 0.394-1.303 0.394-1.983 0-0.681-0.134-1.354-0.394-1.983-0.261-0.629-0.642-1.2-1.123-1.681l-11.179-11.18c-0.4806-0.4818-1.0519-0.8639-1.6807-1.1242-0.6288-0.2604-1.3028-0.3938-1.9834-0.3927v0.0019z"/>
<path d="m69.848 94.473c0.5785 7e-4 1.133 0.2309 1.542 0.64 0.4091 0.409 0.6389 0.9635 0.6397 1.542v13.9c-5e-4 0.578-0.2303 1.132-0.6392 1.541s-0.9632 0.639-1.5415 0.64c-0.5782-1e-3 -1.1326-0.231-1.5415-0.64-0.4088-0.409-0.6388-0.963-0.6396-1.541v-13.9c5e-4 -0.5784 0.2303-1.133 0.6391-1.542 0.4089-0.4091 0.9637-0.6392 1.542-0.64h-1e-3zm1e-3 -3c-1.3742 2e-4 -2.692 0.5464-3.6636 1.5181-0.9716 0.9718-1.5175 2.2897-1.5175 3.6639v13.9c0 1.374 0.5459 2.692 1.5175 3.663 0.9717 0.972 2.2895 1.518 3.6636 1.518s2.692-0.546 3.6636-1.518c0.9716-0.971 1.5171-2.289 1.5171-3.663v-13.9c0-1.3744-0.5458-2.6924-1.5176-3.6642s-2.2897-1.5178-3.6641-1.5178h1e-3z"/>
<path d="m18.407 95.194c0.5784 6e-4 1.133 0.2304 1.542 0.6393 0.4091 0.4089 0.6394 0.9634 0.6402 1.5418v13.9c-8e-4 0.579-0.2311 1.133-0.6402 1.542-0.409 0.409-0.9636 0.639-1.542 0.639-0.5782 0-1.1321-0.231-1.541-0.639-0.4088-0.409-0.6388-0.964-0.6396-1.542v-13.9c8e-4 -0.5782 0.2308-1.1326 0.6396-1.5414 0.4089-0.4089 0.9628-0.6389 1.541-0.6397zm0-3c-1.3741 0-2.6914 0.5459-3.6631 1.5175-0.9716 0.9716-1.5175 2.2895-1.5175 3.6636v13.9c0 1.374 0.5459 2.692 1.5175 3.664 0.9717 0.971 2.289 1.517 3.6631 1.517 1.3742 0 2.6923-0.546 3.6641-1.517 0.9718-0.972 1.5178-2.29 1.5181-3.664v-13.9c-3e-4 -1.3742-0.5463-2.6921-1.5181-3.6637s-2.2899-1.5174-3.6641-1.5174z"/>
<path d="m83.36 24.404c0.1417 0 0.2776 0.0563 0.3779 0.1564s0.157 0.2359 0.1572 0.3777v24.683h14.865c0.1416 0 0.2777 0.0563 0.3779 0.1564 0.1001 0.1002 0.1562 0.2359 0.1562 0.3776s-0.0561 0.2776-0.1562 0.3779-0.2362 0.1568-0.3779 0.1571h-15.4c-0.1418-3e-4 -0.2777-0.0567-0.378-0.157-0.1002-0.1002-0.1564-0.2362-0.1567-0.378v-25.217c3e-4 -0.1418 0.0564-0.2776 0.1567-0.3777s0.2362-0.1564 0.378-0.1564zm0-3c-0.9374 0-1.8361 0.3723-2.4991 1.035-0.6629 0.6628-1.0353 1.5617-1.0356 2.4991v25.217c0 0.9375 0.3722 1.8367 1.0352 2.4996 0.6629 0.6629 1.5619 1.0354 2.4995 1.0354h15.4c0.9373-3e-4 1.8362-0.3728 2.4992-1.0358 0.663-0.6629 1.035-1.5619 1.035-2.4992s-0.372-1.8362-1.035-2.4989c-0.663-0.6628-1.562-1.0351-2.4992-1.0351h-11.864v-21.683c0-0.4642-0.0914-0.9239-0.269-1.3527-0.1777-0.4288-0.4384-0.8184-0.7666-1.1466-0.3283-0.3282-0.7177-0.5886-1.1465-0.7661-0.4289-0.1776-0.8899-0.2688-1.354-0.2687z"/>
<path d="m84.827 3.0001c10.651 0.01191 20.862 4.2482 28.393 11.78 7.532 7.5313 11.768 17.742 11.78 28.393 0.012 9.3076-3.212 18.33-9.122 25.521-5.909 7.1912-14.135 12.104-23.268 13.896v-2.448c8.4691-1.812 16.064-6.4674 21.521-13.193 5.458-6.7253 8.45-15.115 8.479-23.776-0.012-10.016-3.995-19.618-11.077-26.701-7.083-7.0822-16.685-11.066-26.701-11.077-8.8308-0.01038-17.386 3.0774-24.174 8.7254-6.7885 5.6479-11.38 13.498-12.976 22.184h-2.4322c1.5183-8.7278 5.8831-16.708 12.413-22.694 7.4002-6.8276 17.101-10.616 27.17-10.61h-0.0049zm0.0049-3c-10.776 0.012712-21.159 4.0497-29.114 11.32-7.9545 7.27-12.907 17.249-13.886 27.98h8.437c0.9618-8.4963 5.0157-16.342 11.389-22.042 6.3735-5.7001 14.621-8.8562 23.172-8.867 9.2204 0.01059 18.06 3.678 24.58 10.198 6.52 6.5198 10.187 15.36 10.198 24.58-0.011 8.3928-3.053 16.499-8.565 22.829-5.511 6.3292-13.123 10.455-21.435 11.619v8.4589c10.551-1.1896 20.296-6.2206 27.376-14.134 7.08-7.9132 11.001-18.155 11.014-28.773-0.013-11.446-4.565-22.42-12.659-30.514-8.094-8.0938-19.068-12.646-30.514-12.659l0.0068 0.0040283z"/>
<path d="m33.483 41.212 5.2549 17.732 0.6372 2.148h27.473v3.137h-37.557l-0.0439-0.144-0.1631-0.283-5.7998-19.567 10.2-3.0231h-1e-3zm0.1909-3.0679c-0.262 1e-4 -0.5226 0.0379-0.7739 0.112l-10.737 3.183c-0.3424 0.1013-0.6614 0.269-0.939 0.4937-0.2775 0.2246-0.5083 0.5018-0.6787 0.8156-0.1703 0.3138-0.2768 0.6582-0.3139 1.0133-0.0372 0.3552-4e-3 0.7141 0.0976 1.0564l5.8906 19.878c0.0623 0.2076 0.1495 0.407 0.2593 0.594 0.1676 0.5596 0.5107 1.0504 0.979 1.3996s1.0369 0.5384 1.6211 0.5394h38.047c0.7211 0 1.4129-0.2864 1.9228-0.7963 0.51-0.51 0.7959-1.2017 0.7959-1.9228v-3.6999c0-0.357-0.0698-0.7106-0.2065-1.0404-0.1367-0.3299-0.3373-0.6295-0.5898-0.8819s-0.552-0.4525-0.8819-0.5891c-0.3299-0.1365-0.6835-0.2068-1.0405-0.2066h-25.515l-5.335-18c-0.1666-0.5621-0.5104-1.0552-0.98-1.4061-0.4696-0.3508-1.0398-0.5406-1.626-0.541l0.0039-9e-4z"/>
</g>
<defs>
<clipPath id="a">
<rect width="128" height="116.46" fill="#fff"/>
</clipPath>
</defs>
</svg>

<svg width="128" height="117" viewBox="0 0 128 117" fill="none" xmlns="http://www.w3.org/2000/svg">
<g clip-path="url(#clip0)">
<path d="M23.814 20.4863C25.5766 20.4882 27.2664 21.1892 28.5127 22.4355C29.759 23.6819 30.4601 25.3717 30.4619 27.1343C30.4598 28.8967 29.7585 30.5864 28.5122 31.8325C27.2659 33.0786 25.5764 33.7795 23.814 33.7814C22.0517 33.7793 20.3623 33.0782 19.1162 31.8322C17.8701 30.5861 17.1691 28.8965 17.167 27.1343C17.1688 25.3719 17.8696 23.6822 19.1157 22.4359C20.3618 21.1896 22.0515 20.4884 23.814 20.4863ZM23.814 17.4863C21.2553 17.4866 18.8018 18.5032 16.9927 20.3125C15.1835 22.1218 14.167 24.5756 14.167 27.1343C14.167 29.6928 15.1835 32.1466 16.9927 33.9558C18.8018 35.765 21.2554 36.7814 23.814 36.7814C25.0809 36.7815 26.3353 36.532 27.5059 36.0472C28.6764 35.5625 29.7403 34.852 30.6362 33.9562C31.5321 33.0604 32.2427 31.9968 32.7275 30.8263C33.2124 29.6558 33.4619 28.4012 33.4619 27.1343C33.4619 24.5755 32.4456 22.1215 30.6362 20.3121C28.8269 18.5028 26.3728 17.4863 23.814 17.4863Z" fill="#FF525C"/>
<path d="M8.18136 31.5143L20.7434 73.9033L21.3801 76.0503H68.4602C69.2695 76.0514 70.0452 76.3735 70.6174 76.9458C71.1896 77.5182 71.5111 78.294 71.5119 79.1033V83.0863C71.5111 83.8956 71.1896 84.6715 70.6174 85.2439C70.0452 85.8162 69.2695 86.1382 68.4602 86.1393H19.8181C19.0088 86.1382 18.233 85.8162 17.6608 85.2439C17.0887 84.6715 16.7671 83.8956 16.7663 83.0863V79.2363L16.6423 78.8193L3.07101 33.0293L8.18331 31.5143H8.18136ZM8.37325 28.4453C8.11146 28.4452 7.85111 28.4833 7.6003 28.5583L1.94893 30.2323C1.60657 30.3338 1.28792 30.5018 1.01046 30.7266C0.732996 30.9514 0.502542 31.2286 0.332236 31.5425C0.16193 31.8563 0.0550005 32.2006 0.0177826 32.5558C-0.0194352 32.9109 0.0134133 33.2699 0.114951 33.6123L13.7663 79.6713V83.0863C13.7662 83.8811 13.9227 84.6682 14.2268 85.4026C14.5308 86.137 14.9763 86.8042 15.5383 87.3663C16.1003 87.9284 16.7678 88.3744 17.5022 88.6786C18.2365 88.9828 19.0232 89.1393 19.8181 89.1393H68.4602C70.0653 89.139 71.6045 88.5012 72.7395 87.3661C73.8744 86.231 74.5119 84.6915 74.5119 83.0863V79.1033C74.5119 77.4981 73.8744 75.9587 72.7395 74.8236C71.6045 73.6885 70.0653 73.0506 68.4602 73.0503H23.6203L10.9773 30.3923C10.8107 29.8303 10.4669 29.3372 9.99727 28.9863C9.52768 28.6355 8.95748 28.4457 8.3713 28.4453H8.37325Z" fill="#FF525C"/>
<path d="M85.5063 94.8789C85.793 94.8779 86.0774 94.9339 86.3423 95.0436C86.6072 95.1533 86.8473 95.3145 87.0493 95.518L98.2275 106.696C98.6357 107.105 98.8647 107.66 98.8647 108.238C98.8647 108.816 98.6357 109.371 98.2275 109.78C98.0255 109.983 97.7849 110.145 97.52 110.254C97.2551 110.364 96.9713 110.42 96.6846 110.419C96.398 110.42 96.1138 110.364 95.8491 110.254C95.5844 110.144 95.3445 109.983 95.1426 109.78L83.9634 98.6019C83.7604 98.3998 83.5997 98.1595 83.4902 97.8948C83.3807 97.6301 83.3248 97.3464 83.3257 97.0599C83.3248 96.7735 83.3807 96.4898 83.4902 96.2251C83.5997 95.9604 83.7604 95.7201 83.9634 95.518C84.1655 95.3146 84.406 95.1534 84.6709 95.0437C84.9358 94.934 85.2197 94.878 85.5063 94.8789ZM85.5063 91.8789C84.8258 91.8779 84.1517 92.0114 83.5229 92.2717C82.8941 92.5321 82.3229 92.9142 81.8423 93.396C80.8709 94.3679 80.3252 95.6858 80.3252 97.0599C80.3252 98.4341 80.8709 99.7521 81.8423 100.724L93.0215 111.902C93.5019 112.384 94.073 112.766 94.7017 113.026C95.3303 113.287 96.0041 113.42 96.6846 113.419C97.3651 113.42 98.0392 113.286 98.668 113.026C99.2968 112.766 99.868 112.384 100.349 111.902C100.83 111.421 101.211 110.85 101.472 110.221C101.732 109.592 101.866 108.918 101.866 108.238C101.866 107.557 101.732 106.884 101.472 106.255C101.211 105.626 100.83 105.055 100.349 104.574L89.1704 93.3939C88.6898 92.9121 88.1185 92.53 87.4897 92.2697C86.8609 92.0093 86.1869 91.8759 85.5063 91.877V91.8789Z" fill="#FF525C"/>
<path d="M69.8481 94.4727C70.4266 94.4734 70.9811 94.7036 71.3901 95.1127C71.7992 95.5217 72.029 96.0762 72.0298 96.6547V110.555C72.0293 111.133 71.7995 111.687 71.3906 112.096C70.9817 112.505 70.4274 112.735 69.8491 112.736C69.2709 112.735 68.7165 112.505 68.3076 112.096C67.8988 111.687 67.6688 111.133 67.668 110.555V96.6547C67.6685 96.0763 67.8983 95.5217 68.3071 95.1127C68.716 94.7036 69.2708 94.4735 69.8491 94.4727H69.8481ZM69.8491 91.4727C68.4749 91.4729 67.1571 92.0191 66.1855 92.9908C65.2139 93.9626 64.668 95.2805 64.668 96.6547V110.555C64.668 111.929 65.2139 113.247 66.1855 114.218C67.1572 115.19 68.475 115.736 69.8491 115.736C71.2232 115.736 72.5411 115.19 73.5127 114.218C74.4843 113.247 75.0298 111.929 75.0298 110.555V96.6547C75.0298 95.2803 74.484 93.9623 73.5122 92.9905C72.5404 92.0187 71.2225 91.4727 69.8481 91.4727H69.8491Z" fill="#FF525C"/>
<path d="M18.4072 95.1943C18.9856 95.1949 19.5402 95.4247 19.9492 95.8336C20.3583 96.2425 20.5886 96.797 20.5894 97.3754V111.275C20.5886 111.854 20.3583 112.408 19.9492 112.817C19.5402 113.226 18.9856 113.456 18.4072 113.456C17.829 113.456 17.2751 113.225 16.8662 112.817C16.4574 112.408 16.2274 111.853 16.2266 111.275V97.3754C16.2274 96.7972 16.4574 96.2428 16.8662 95.834C17.2751 95.4251 17.829 95.1951 18.4072 95.1943ZM18.4072 92.1943C17.0331 92.1943 15.7158 92.7402 14.7441 93.7118C13.7725 94.6834 13.2266 96.0013 13.2266 97.3754V111.275C13.2266 112.649 13.7725 113.967 14.7441 114.939C15.7158 115.91 17.0331 116.456 18.4072 116.456C19.7814 116.456 21.0995 115.91 22.0713 114.939C23.0431 113.967 23.5891 112.649 23.5894 111.275V97.3754C23.5891 96.0012 23.0431 94.6833 22.0713 93.7117C21.0995 92.7401 19.7814 92.1943 18.4072 92.1943Z" fill="#FF525C"/>
<path d="M83.3599 24.4043C83.5016 24.4043 83.6375 24.4606 83.7378 24.5607C83.8381 24.6608 83.8948 24.7966 83.895 24.9384V49.6213H98.7598C98.9014 49.6213 99.0375 49.6776 99.1377 49.7777C99.2378 49.8779 99.2939 50.0136 99.2939 50.1553C99.2939 50.297 99.2378 50.4329 99.1377 50.5332C99.0376 50.6335 98.9015 50.69 98.7598 50.6903H83.3599C83.2181 50.69 83.0822 50.6336 82.9819 50.5333C82.8817 50.4331 82.8255 50.2971 82.8252 50.1553V24.9384C82.8255 24.7966 82.8816 24.6608 82.9819 24.5607C83.0822 24.4606 83.2181 24.4043 83.3599 24.4043ZM83.3599 21.4043C82.4225 21.4043 81.5238 21.7766 80.8608 22.4393C80.1979 23.1021 79.8255 24.001 79.8252 24.9384V50.1553C79.8252 51.0928 80.1974 51.992 80.8604 52.6549C81.5233 53.3178 82.4223 53.6903 83.3599 53.6903H98.7598C99.6971 53.69 100.596 53.3175 101.259 52.6545C101.922 51.9916 102.294 51.0926 102.294 50.1553C102.294 49.218 101.922 48.3191 101.259 47.6564C100.596 46.9936 99.697 46.6213 98.7598 46.6213H86.896V24.9384C86.896 24.4742 86.8046 24.0145 86.627 23.5857C86.4493 23.1569 86.1886 22.7673 85.8604 22.4391C85.5321 22.1109 85.1427 21.8505 84.7139 21.673C84.285 21.4954 83.824 21.4042 83.3599 21.4043Z" fill="#FF525C"/>
<path d="M84.8271 3.00012C95.478 3.01203 105.689 7.24834 113.22 14.7797C120.752 22.311 124.988 32.5222 125 43.1731C125.012 52.4807 121.788 61.503 115.878 68.6942C109.969 75.8854 101.743 80.7979 92.6099 82.5901V80.1421C101.079 78.3301 108.674 73.6747 114.131 66.9495C119.589 60.2242 122.581 51.8341 122.61 43.1731C122.598 33.1572 118.615 23.5548 111.533 16.4725C104.45 9.39025 94.8479 5.4064 84.832 5.39502C76.0012 5.38464 67.4463 8.4724 60.6577 14.1204C53.8692 19.7683 49.2772 27.6187 47.6812 36.3041H45.249C46.7673 27.5763 51.1321 19.5966 57.6621 13.6101C65.0623 6.78253 74.7634 2.99419 84.832 3.00012H84.8271ZM84.832 0.00012207C74.0559 0.0128341 63.6727 4.04984 55.7183 11.3198C47.7638 18.5898 42.8117 28.5685 41.832 39.3H50.269C51.2308 30.8037 55.2847 22.9581 61.6582 17.2581C68.0317 11.558 76.2795 8.40192 84.8301 8.39111C94.0505 8.4017 102.89 12.0691 109.41 18.589C115.93 25.1088 119.597 33.9486 119.608 43.1691C119.597 51.5619 116.555 59.6685 111.043 65.9977C105.532 72.3269 97.9197 76.453 89.6079 77.6171V86.076C100.159 84.8864 109.904 79.8554 116.984 71.9423C124.064 64.0291 127.985 53.7872 127.998 43.1691C127.985 31.7228 123.433 20.7489 115.339 12.6552C107.245 4.5614 96.2715 0.00879863 84.8252 -0.00390625L84.832 0.00012207Z" fill="#FF525C"/>
<path d="M33.483 41.2115L38.7379 58.9436L39.3751 61.0916H66.8483V64.2286H29.2911L29.2472 64.0846L29.0841 63.8016L23.2843 44.2346L33.484 41.2115H33.483ZM33.6739 38.1436C33.4119 38.1437 33.1513 38.1815 32.9 38.2556L22.1632 41.4386C21.8208 41.5399 21.5018 41.7076 21.2242 41.9323C20.9467 42.1569 20.7159 42.4341 20.5455 42.7479C20.3752 43.0617 20.2687 43.4061 20.2316 43.7612C20.1944 44.1164 20.2276 44.4753 20.3292 44.8176L26.2198 64.6956C26.2821 64.9032 26.3693 65.1026 26.4791 65.2896C26.6467 65.8492 26.9898 66.34 27.4581 66.6892C27.9264 67.0384 28.495 67.2276 29.0792 67.2286H67.1261C67.8472 67.2286 68.539 66.9422 69.0489 66.4323C69.5589 65.9223 69.8448 65.2306 69.8448 64.5095V60.8096C69.8448 60.4526 69.775 60.099 69.6383 59.7692C69.5016 59.4393 69.301 59.1397 69.0485 58.8873C68.796 58.6349 68.4965 58.4348 68.1666 58.2982C67.8367 58.1617 67.4831 58.0914 67.1261 58.0916H41.611L36.276 40.0916C36.1094 39.5295 35.7656 39.0364 35.296 38.6855C34.8264 38.3347 34.2562 38.1449 33.67 38.1445L33.6739 38.1436Z" fill="#FF525C"/>
</g>
<defs>
<clipPath id="clip0">
<rect width="128" height="116.456" fill="white"/>
</clipPath>
</defs>
</svg>
